X: 50
M:3/2
L:1/4
K:Gmin
c2e2g2 | fd2e/d/c_a | gfedc=B | cG2d/e/dc ||
eg2_abe | df2g_ad | ce2fgd | =B2G2G2 ||
b2bedb | a2adc_a | g2gc=Bc | c3=Bc2 ||
cc'gegb | dbfdf_a | gc=BgA^f | gG_AFG=B ||
cGEGCF | BFDFDG | cGEGCD/E/ | D>EDC=B,G ||

